icons/op-budget-16.svg

<svg width="16" height="16" viewBox="0 0 16 16" fill="none" xmlns="http://www.w3.org/2000/svg">
<path fill-rule="evenodd" clip-rule="evenodd" d="M3.63605 1.30846C5.0602 0.897179 6.79165 0.897179 8.2158 1.30846C8.93054 1.51488 9.56032 1.82246 10.0273 2.22681C10.494 2.63085 10.8519 3.18469 10.8519 3.85185C10.8519 4.51902 10.494 5.07285 10.0273 5.47689C9.56032 5.88124 8.93054 6.18883 8.2158 6.39524C6.79165 6.80652 5.0602 6.80652 3.63605 6.39524C3.24644 6.28272 2.88207 6.14014 2.55556 5.96821V7.30866C2.55556 7.35068 2.55933 7.40616 2.67868 7.51647C2.82216 7.64908 3.07247 7.79972 3.47842 7.98154C3.87045 8.15713 4.04591 8.61727 3.87033 9.0093C3.69474 9.40133 3.2346 9.57679 2.84257 9.40121C2.74645 9.35816 2.65043 9.31345 2.55556 9.26665V10.7654C2.55556 10.8075 2.55933 10.8629 2.67868 10.9732C2.82216 11.1059 3.07247 11.2565 3.47842 11.4383C3.87045 11.6139 4.04591 12.074 3.87033 12.4661C3.69474 12.8581 3.2346 13.0336 2.84257 12.858C2.39953 12.6596 1.95848 12.4258 1.62285 12.1156C1.26309 11.7831 1 11.3373 1 10.7654V3.85185C1 3.18469 1.35787 2.63085 1.82452 2.22681C2.29153 1.82246 2.92131 1.51488 3.63605 1.30846ZM2.84274 4.30089C2.59314 4.08477 2.55556 3.92582 2.55556 3.85185C2.55556 3.77788 2.59314 3.61893 2.84274 3.40282C3.09198 3.18702 3.49924 2.9671 4.06765 2.80294C5.20983 2.47309 6.64203 2.47309 7.7842 2.80294C8.35262 2.9671 8.75987 3.18702 9.00911 3.40282C9.25871 3.61893 9.2963 3.77788 9.2963 3.85185C9.2963 3.92582 9.25871 4.08477 9.00911 4.30089C8.75987 4.51669 8.35262 4.7366 7.7842 4.90076C6.64203 5.23061 5.20983 5.23061 4.06765 4.90076C3.49924 4.7366 3.09198 4.51669 2.84274 4.30089Z" fill="black"/>
<path fill-rule="evenodd" clip-rule="evenodd" d="M6.793 7.22043C7.67286 6.7805 8.83397 6.53087 10.0741 6.53087C11.3142 6.53087 12.4753 6.7805 13.3552 7.22043C14.1886 7.63712 15 8.35667 15 9.38273L15 9.39019V12.1481C15 13.1739 14.1884 13.8934 13.3552 14.3102C12.4754 14.7502 11.3143 15 10.0741 15C8.83386 15 7.67275 14.7502 6.79292 14.3102C5.9597 13.8934 5.14815 13.1739 5.14815 12.1481V9.38272L5.14817 9.37621C5.1516 8.35362 5.96138 7.63624 6.793 7.22043ZM13.4444 9.38272L13.4444 9.38065C13.4431 9.25956 13.3236 8.9438 12.6595 8.61176C12.0381 8.30105 11.1251 8.08643 10.0741 8.08643C9.02305 8.08643 8.11008 8.30105 7.48866 8.61176C6.82076 8.94571 6.70372 9.2632 6.70372 9.38273C6.70372 9.50225 6.82076 9.81974 7.48866 10.1537C8.11008 10.4644 9.02305 10.679 10.0741 10.679C11.1251 10.679 12.0381 10.4644 12.6595 10.1537C13.3232 9.82187 13.4429 9.50629 13.4444 9.38503V9.38272ZM13.4444 12.1481V11.4992C13.4147 11.5148 13.385 11.5301 13.3552 11.545C12.4753 11.985 11.3142 12.2346 10.0741 12.2346C8.83397 12.2346 7.67286 11.985 6.793 11.545C6.76319 11.5301 6.73342 11.5148 6.7037 11.4992V12.1481C6.7037 12.2673 6.82064 12.5848 7.48871 12.9189C8.11017 13.2297 9.02313 13.4444 10.0741 13.4444C11.125 13.4444 12.038 13.2297 12.6594 12.9189C13.3275 12.5848 13.4444 12.2673 13.4444 12.1481Z" fill="black"/>
</svg>

<svg xmlns="http://www.w3.org/2000/svg" width="16" height="16" viewBox="0 0 16 16"><path d="M3.636 1.308c1.424-.411 3.156-.411 4.58 0 .715.207 1.344.514 1.811.919.467.404.825.958.825 1.625s-.358 1.221-.825 1.625c-.467.404-1.096.712-1.811.918-1.424.412-3.156.412-4.58 0a5.679 5.679 0 0 1-1.08-.427v1.341c0 .042.003.097.123.207.143.133.393.284.799.466a.776.776 0 1 1-.635 1.419 8.387 8.387 0 0 1-.287-.134v1.498c0 .042.003.098.123.208.143.133.393.284.799.465a.778.778 0 0 1-.635 1.42c-.443-.198-.885-.432-1.22-.742-.36-.333-.623-.779-.623-1.351V3.852c0-.667.358-1.221.825-1.625.467-.405 1.096-.712 1.811-.919Zm-.793 2.993c.249.216.656.436 1.225.6 1.142.33 2.574.33 3.716 0 .569-.164.976-.384 1.225-.6.25-.216.287-.375.287-.449 0-.074-.037-.233-.287-.449-.249-.216-.656-.436-1.225-.6-1.142-.33-2.574-.33-3.716 0-.569.164-.976.384-1.225.6-.25.216-.287.375-.287.449 0 .074.037.233.287.449Z"/><path d="M6.793 7.22c.88-.44 2.041-.689 3.281-.689 1.24 0 2.401.249 3.281.689C14.189 7.637 15 8.357 15 9.383v2.765c0 1.026-.812 1.745-1.645 2.162-.88.44-2.041.69-3.281.69-1.24 0-2.401-.25-3.281-.69-.833-.417-1.645-1.136-1.645-2.162V9.376c.004-1.022.813-1.74 1.645-2.156Zm6.651 2.161c-.001-.121-.12-.437-.784-.769-.622-.311-1.535-.526-2.586-.526s-1.964.215-2.585.526c-.668.334-.785.651-.785.771 0 .119.117.437.785.771.621.31 1.534.525 2.585.525s1.964-.215 2.586-.525c.663-.332.783-.648.784-.769v-.004Zm0 2.767v-.649l-.089.046c-.88.44-2.041.69-3.281.69-1.24 0-2.401-.25-3.281-.69l-.089-.046v.649c0 .119.117.437.785.771.621.311 1.534.525 2.585.525s1.964-.214 2.585-.525c.669-.334.785-.652.785-.771Z"/></svg>
